packages/merlin-www-assets/imports/gq/icons/gallery-list.svg

<svg viewBox="0 0 18 18" xmlns="http://www.w3.org/2000/svg"><title>Gallery List</title><path d="m2 2h-2v-2h2zm0 6h-2v2h2zm0 8h-2v2h2zm16-16h-12v2h12zm0 8h-12v2h12zm0 8h-12v2h12z"/></svg>

<svg viewBox="0 0 18 18"><title>Gallery List</title><path d="M2 2H0V0h2zm0 6H0v2h2zm0 8H0v2h2zM18 0H6v2h12zm0 8H6v2h12zm0 8H6v2h12z"/></svg>
